src/lib/packages/icons/src/assets/filled/chat-exclamation.svg

<svg width="24" height="24" viewBox="0 0 24 24" fill="none" xmlns="http://www.w3.org/2000/svg">
<path d="M12.001 3C7.031 3 3.00197 7.02902 3.00197 11.999C3.00197 13.339 3.30205 14.619 3.83205 15.758C4.04205 16.198 4.04211 16.708 3.89211 17.178L3.05202 19.678C2.79202 20.458 3.54204 21.208 4.32204 20.948L6.82204 20.108C7.29204 19.958 7.80196 19.958 8.24196 20.168C9.38196 20.698 10.662 20.998 12.002 20.998C16.972 20.998 21.001 16.969 21.001 11.999C21 7.02902 16.971 3 12.001 3ZM11.25 9C11.25 8.586 11.586 8.25 12 8.25C12.414 8.25 12.75 8.586 12.75 9V12C12.75 12.414 12.414 12.75 12 12.75C11.586 12.75 11.25 12.414 11.25 12V9ZM12.02 16C11.468 16 11.0149 15.552 11.0149 15C11.0149 14.448 11.458 14 12.01 14H12.02C12.573 14 13.02 14.448 13.02 15C13.02 15.552 12.572 16 12.02 16Z" fill="currentColor"/>
</svg>

<svg xmlns="http://www.w3.org/2000/svg" width="24" height="24" fill="none"><path fill="currentColor" d="M12.001 3a9 9 0 0 0-8.999 8.999c0 1.34.3 2.62.83 3.759.21.44.21.95.06 1.42l-.84 2.5c-.26.78.49 1.53 1.27 1.27l2.5-.84c.47-.15.98-.15 1.42.06 1.14.53 2.42.83 3.76.83A8.999 8.999 0 1 0 12.001 3Zm-.751 6a.75.75 0 0 1 1.5 0v3a.75.75 0 0 1-1.5 0V9Zm.77 7a1.005 1.005 0 0 1-1.005-1c0-.552.443-1 .995-1h.01a1 1 0 1 1 0 2Z"/></svg>
